src/assets/images/footer-social-3.svg

<svg width="28" height="28" viewBox="0 0 28 28" fill="none" xmlns="http://www.w3.org/2000/svg">
<mask id="mask0_342_909" style="mask-type:luminance" maskUnits="userSpaceOnUse" x="0" y="0" width="28" height="28">
<path d="M0.83197 0.143555H27.832V27.1436H0.83197V0.143555Z" fill="white"/>
</mask>
<g mask="url(#mask0_342_909)">
<path d="M27.832 5.2719C26.8164 5.7148 25.7424 6.00916 24.643 6.1459C25.8017 5.45859 26.668 4.3702 27.078 3.0869C25.9929 3.73044 24.8058 4.18364 23.568 4.4269C22.8092 3.61597 21.8241 3.05207 20.7406 2.80854C19.657 2.565 18.5253 2.65309 17.4926 3.06134C16.4598 3.4696 15.5737 4.17914 14.9496 5.0977C14.3255 6.01626 13.9922 7.10136 13.993 8.2119C13.993 8.6509 14.03 9.0719 14.122 9.4739C9.51997 9.2499 5.44797 7.0439 2.71197 3.6839C2.21726 4.53347 1.95609 5.49879 1.95497 6.4819C1.95497 8.3989 2.94197 10.0989 4.41297 11.0819C3.5371 11.0585 2.67968 10.825 1.91297 10.4009V10.4609C1.91407 11.7392 2.3556 12.978 3.16321 13.9689C3.97082 14.9597 5.09518 15.642 6.34697 15.9009C5.89697 16.0229 5.40597 16.0819 4.89597 16.0819C4.54197 16.0819 4.18397 16.0619 3.84797 15.9879C4.56497 18.1799 6.59997 19.7919 9.01997 19.8439C7.06054 21.3758 4.64417 22.2067 2.15697 22.2039C1.70297 22.2039 1.26697 22.1839 0.83197 22.1289C3.36318 23.76 6.31276 24.6228 9.32397 24.6129C19.51 24.6129 25.078 16.1749 25.078 8.8619C25.078 8.6169 25.07 8.3809 25.058 8.1459C26.1497 7.3645 27.0897 6.39057 27.832 5.2719Z" fill="white"/>
</g>
</svg>

<svg xmlns="http://www.w3.org/2000/svg" width="28" height="28" fill="none"><mask id="a" width="28" height="28" x="0" y="0" maskUnits="userSpaceOnUse" style="mask-type:luminance"><path fill="#fff" d="M.832.144h27v27h-27v-27Z"/></mask><g mask="url(#a)"><path fill="#fff" d="M27.832 5.272c-1.016.443-2.09.737-3.189.874a5.504 5.504 0 0 0 2.435-3.06 11.063 11.063 0 0 1-3.51 1.34 5.534 5.534 0 0 0-9.575 3.786c0 .439.037.86.129 1.262-4.602-.224-8.674-2.43-11.41-5.79a5.543 5.543 0 0 0 1.701 7.398 5.467 5.467 0 0 1-2.5-.681v.06a5.56 5.56 0 0 0 4.434 5.44c-.45.122-.941.18-1.451.18-.354 0-.712-.02-1.048-.093.717 2.192 2.752 3.804 5.172 3.856a11.122 11.122 0 0 1-6.863 2.36c-.454 0-.89-.02-1.325-.075a15.583 15.583 0 0 0 8.492 2.484c10.186 0 15.754-8.438 15.754-15.751 0-.245-.008-.481-.02-.716a11.043 11.043 0 0 0 2.774-2.874Z"/></g></svg>
